X: 14730
T: Gan Ainm
R: reel
M: 4/4
K: Amajor
|:BAAB c2 a2|dcBA GABc|AGAB c2 a2|ceBd cA A2:|
a2 ga fedc|dcBA GA B2|aAgA fedc|dfed cA A2|
agfe d2 c2|dcBA GABc|AEFG Aaga|fagb aA A2||

